X:1
T:My Darling Asleep
M:6/8
L:1/8
Q:80
C:Arranged by T. Tully
S:Jig
K:HP
{g}fed{g}c{d}A{e}A | \
{g}B{d}G{e}G{g}A3 | \
{g}G{d}A{e}A{g}def |
{a}gfg{a}efg{g}fed{g}c{d}A{e}A | \
{g}B{d}G{e}G{g}A3 | \
{g}G{d}A{e}A{g}def |
{a}gec{g}d3 :| \
{g}A{d}A{e}A{g}BAG | \
{g}A{d}A{e}A{g}GAB |
{g}A{d}A{e}A{g}def | \
{a}gfg{a}efg{g}fed{g}c{d}A{e}A | \
{g}B{d}G{e}G{g}A3 |
{g}G{d}A{e}A{g}def | \
{a}gec{g}d3 :|
